X:1
T:a
L:1/8
M:2/4
I:linebreak $
K:Dmaj
V:1 treble nm="Guitarra el�ctrica" snm="Guit. El."
%%MIDI program 27
V:1
 z2 A,2 | (3:2:2F2 F- FF | (3:2:2A2 A- A2- | A2 z2 | F2 A2 | B>c .BA | F4- | F2 z2 | z3 F/E/ |$ %9
 F2 A2 | (3:2:2E2 E- EE/D/ | E4- | E2 z2 | (3:2:2A,2 D- DE | (3:2:2F2 D- DA, | %15
 (3:2:2B,2 B,- B,B,/A,/ | B,4- |$ B,3 C | D2 E2 | F F2 F | A A3 | z3 D/E/ | FA dc | B>c BA |$ F4- | %25
 F4 | z2 z E | F2 A2 |$ (3:2:2E2 E- EE/D/ | E4- | E2 z2 | (3:2:2A,2 D- DE |$ (3:2:2F2 D- DA, | %33
 B,D- DF | E3 D/E/ | (3D/E/D/-D- D2 |$ z D/E/ FA | (3:2:2d2 d- dd | (3:2:2d2 c- cA/F/ | B3 A/G/ | %40
 A3 G/F/ |$ G>A- A(3G/A/G/ | F>D- .DA, | B,>D- .D(3F/G/F/ | E4 |$ (3:2:2d2 e- ed | (3:2:2c2 A- AF | %47
 B3 A/G/ | A3 G/F/ | (3:2:2G2 A- AG | (3:2:2F2 D- DA, | B,3 A, | A,4 |] %53

